!!!OTL: 973b. Ringeltanz.
!!!ODT: 1851
!!!ARE: Europa, Mitteleuropa, Deutschland, Oderberg, Hohen - Saathen
!!!SCT: E0973A
!!!TXL: @@DE
!!!YEM: Copyright 1995, estate of Helmut Schaffrath.
**kern	**text
*ICvox	*
*M3/4	*
*k[f#c#g#]	*
*A:	*
=1	=1
!LO:TX:a:t=Mäßig geschwind.	!
!LO:TX:a:t=Aus Hohen Saathen bei Oderberg. 1851.	!
{4a	Mich
4e	hat
4a	das
=2	=2
(4a	Glück
8g#)	.
8a	ge-
4b}	-führt
=3	=3
{4cc#	in
4f#	die-
4b	-ſem
=4	=4
(4g#	Krei-
4f#)	.
4e}	-ſe!
=5	=5
{4a	Das
4e	macht
4a	die
=6	=6
(4a	Kom-
8g#)	.
8a	-pa-
4b}	-nie
=7	=7
{4cc#	mit
4f#	ihm
4b	ʒu-
=8	=8
(4g#	-glei-
4f#)	.
4e}	-che;
=9	=9
{4b	daß
4b	ich
4b	ſo
=10	=10
4.b/	küh-
8a	-ne
4b/}	bin
=11	=11
{4a	hier
4cc#	un-
4cc#	-tern
=12	=12
4cc#	Lin-
4b	-den,
4r}	.
=13	=13
{4a	weil
4cc#	ich
4ee	ein
=14	=14
(4a	Lieb-
8g#)	.
8f#	-chen
4e}	hab,
=15	=15
{8a	kann
8a	ſie
8cc#L	hier
8bJ	.
4g#	nicht
=16	=16
4b/	fin-
4a	-den.
4r}	.
==	==
!!!AGN: Tanz - Lied, Reigen
!!!ONB: ESAC (Essen Associative Code) Database: ERK2
!!!AMT: simple triple
!!!AIN: vox
!!!EED: Helmut Schaffrath
!!!EEV: 1.0
!!!GTL: Tanz- und Spiellieder.
!!!URL-scan: https://rosdok.uni-rostock.de/mcrviewer/recordIdentifier/rosdok_ppn745177662/iview2/phys_0743.iview2?x=-151.00528573090037&y=1921.44345161831&scale=0.5208463313777512&rotation=0&layout=singlePageLayout
!!!ENC: Anna Maria Matuszewska
!!!EEV: 2024/12/20
*-	*-
